X: 108203
Q:"Strathspey."
M: C
L: 1/16
K: G
uB2 |\
vGuD3 vD3uE vG3uAvBuG3 | vc3vAuB3uG E4 (E3A) |\
ug2 |\
(efg2) d3g B3g (dB3) | c3AB3G E4- E3g |
(efg2) d3g B3g (dB3) | c3A d3B G4- G3g |\
e3gd3b c3aB3g | c3AB3G E4- E3A |\


